X: 1
T: Traditional Pipe Tune
O: Natalie MacMaster
D: Natalie MacMaster "Cape Breton Girl"
R: strathspey
S: Dance set by Terry Traub 2014-9-15
Z: 2014 John Chambers <jc:trillian.mit.edu>
M: C
L: 1/16
K: A
c2 |:\
"A"A4 e2fg ae3 "D"f4 | "A"ec3 e3f "E7"e3c Bc3 |\
"A"A4 e2fg ae3 "D"f4 | "E7"ec3 B3d "A"c3A "E7"AB3 :|
|:\
"A"c4 ec3 A3c e3c | "D"ddd2 fd3 f3a fd3 |\
"A"c3d ec3 A3c e3a | "D"fd3 "A"ec3 "E7"BBB2 B4 :|
